static/assets/images/tokens/cbbtc.svg

<svg width="256" height="256" viewBox="0 0 256 256" fill="none" xmlns="http://www.w3.org/2000/svg">
<path d="M128 256C198.934 256 256 198.934 256 128C256 57.0662 198.934 0 128 0C57.0662 0 0 57.0662 0 128C0 198.934 57.0662 256 128 256Z" fill="#1552F0"/>
<path d="M128.5 242C191.952 242 243 190.952 243 127.5C243 64.0475 191.952 13 128.5 13C65.0475 13 14 64.0475 14 127.5C14 190.952 65.0475 242 128.5 242Z" fill="white"/>
<path fill-rule="evenodd" clip-rule="evenodd" d="M192.492 111.369C195.532 92.6738 181.347 82.4355 161.861 75.3598L168.464 50.2464L153.021 46.2178L146.541 70.8651L134.199 67.6453L140.679 42.998L125.353 39L118.705 64.2883L87.3807 56.1167L83.0531 72.5774C83.0531 72.5774 94.5132 75.3491 94.2841 75.5073C96.4 75.8184 98.3121 76.9356 99.6174 78.6234C100.923 80.3113 101.519 82.4379 101.281 84.5553L83.0822 153.777C82.8492 154.485 82.476 155.139 81.9848 155.701C81.4936 156.263 80.8943 156.721 80.2223 157.047C79.5583 157.386 78.8324 157.587 78.0883 157.639C77.3442 157.691 76.5972 157.593 75.8923 157.35C76.0511 157.578 64.6613 154.42 64.6613 154.42L56.9034 172.041L87.9349 180.136L81.1792 205.832L96.6219 209.861L103.278 184.543L115.62 187.763L108.995 212.964L124.467 217L131.146 191.595C157.648 196.828 177.525 195.164 186.202 171.432C193.192 152.335 186.248 141.184 172.405 133.806C182.54 131.749 190.242 125.041 192.492 111.369ZM117.585 132.144L108.67 166.056C109.528 166.28 110.533 166.558 111.658 166.869C124.253 170.351 151.852 177.982 156.465 160.437C161.174 142.524 134.535 136.198 121.463 133.093L121.461 133.093C119.971 132.739 118.656 132.427 117.585 132.144ZM129.778 85.8874L121.674 116.711C122.422 116.906 123.303 117.153 124.292 117.43L124.295 117.43C134.84 120.381 157.659 126.768 161.861 110.788C166.168 94.4038 143.805 89.185 132.931 86.6472C131.72 86.3646 130.651 86.1152 129.778 85.8874Z" fill="#1552F0"/>
</svg>

<svg xmlns="http://www.w3.org/2000/svg" fill="none" viewBox="0 0 256 256"><path fill="#1552F0" d="M128 256c70.934 0 128-57.066 128-128S198.934 0 128 0 0 57.066 0 128s57.066 128 128 128"/><path fill="#fff" d="M128.5 242c63.452 0 114.5-51.048 114.5-114.5S191.952 13 128.5 13 14 64.048 14 127.5 65.048 242 128.5 242"/><path fill="#1552F0" fill-rule="evenodd" d="M192.492 111.369c3.04-18.695-11.145-28.933-30.631-36.01l6.603-25.113-15.443-4.028-6.48 24.647-12.342-3.22 6.48-24.647L125.353 39l-6.648 25.288-31.324-8.171-4.328 16.46s11.46 2.772 11.231 2.93a8.26 8.26 0 0 1 5.333 3.116 8.2 8.2 0 0 1 1.664 5.932l-18.199 69.222a5.57 5.57 0 0 1-2.86 3.27 5.54 5.54 0 0 1-4.33.303c.16.228-11.23-2.93-11.23-2.93l-7.759 17.621 31.032 8.095-6.756 25.696 15.443 4.029 6.656-25.318 12.342 3.22-6.625 25.201L124.467 217l6.679-25.405c26.502 5.233 46.379 3.569 55.056-20.163 6.99-19.097.046-30.248-13.797-37.626 10.135-2.057 17.837-8.765 20.087-22.437m-74.907 20.775-8.915 33.912c.858.224 1.863.502 2.988.813 12.595 3.482 40.194 11.113 44.807-6.432 4.709-17.913-21.93-24.239-35.002-27.344h-.002c-1.49-.354-2.805-.666-3.876-.949m12.193-46.257-8.104 30.824c.748.195 1.629.442 2.618.719h.003c10.545 2.951 33.364 9.338 37.566-6.642 4.307-16.384-18.056-21.603-28.93-24.14a141 141 0 0 1-3.153-.76" clip-rule="evenodd"/></svg>
